X: 37433
T: Sliabh Luachra, The
R: polka
M: 2/4
K: Dmajor
|:dA B/A/F|dA B/c/d|B>A B/c/d|e2 f>e|
df Bd|Ad FD|E2 EF|D2 D2:|
|:FA AB|Ad dc/B/|AF ED|FE E2|
FA AB|Ad dc/B/|AF EF|1 D2 D>E:|2 D2 D2||

